!!!OTL: 163. Der Gaensedieb. / Zweite Melodie.
!!!ARE: Europa, Mitteleuropa, Deutschland
!!!SCT: K2163A
!!!TXL: @@DE
!!!YEM: Copyright 1995, estate of Helmut Schaffrath.
**kern	**text
*clefG2	*
*M2/4	*
*k[f#c#]	*
*D:	*
=1	=1
{8.d	Wer
16e	die
8f#	Gans
8g	ge-
=2	=2
8.a	-ſtoh-
16a	-len
8a}	hat,
{8a	der
=3	=3
4b	iſt
4b	ein
=4	=4
2a}	Dieb;
=5	=5
{8.g	wer
16g	ſie
8g	a-
8a	-ber
=6	=6
8f#	wie-
8f#	-der-
8.f#}	-gibt,
{16f#	den
=7	=7
4e	hab'
4a	ich
=8	=8
2d}	lieb.
=9	=9
{4a	Da
8f#	ſteht
8d	der
=10	=10
8e	Gän-
8c#	-ſe-
4d}	-dieb!
=11	=11
{4a	Da
8f#	ſteht
8d	der
=12	=12
8e	Gän-
8c#	-ſe-
4d}	-dieb!
==	==
!!!AGN: Kinder - Lied, Reigen, Tanz - Spiel
!!!ONB: ESAC (Essen Associative Code) Database: KINDER
!!!AMT: simple duple
!!!AIN: vox
!!!EED: Helmut Schaffrath
!!!EEV: 1.0
!!Jn ganz Deutschland gekannt.
!!!GTL: Zweites Buch. Kinderspiel: 2. Reigen und Tanzspiele. / C. Ringelreihen mit Aufloesen des Kreises und Haschenspiel.
!!!URL-scan: https://archive.org/details/DeutschesKinderliedUndKinderspiel/page/465/mode/1up
!!!ENC: Anna Maria Matuszewska
!!!EEV: 2024/03/09
*-	*-
